X:268
T:Rosa May - heard at Looe
F:http://www.vwml.org/record/SBG/3/
Z:Original Sibelius transcriptions by M. & S. Graebe
L:1/4
M:4/4
I:linebreak $
K:Ab
V:1 treble nm="P1"
V:2 treble 
V:1
 E | E A A B | c3/2 B/ A A | d F G A | (B3 B/>)E/ | E A A B | c3/2 B/ A3/2 F/ | B F G B |$ A2 z B | %9
 B3/2 A/ G F | G/A/ B E G | F G/A/ G F | (G B2) B | B3/2 A/ G F | G/A/ B E e |$ c B/A/ G F | E4 | %17
"^chor." (E4 | (E2) e3/2) E/ | E A A B | c3/2 B/ A A | d F G A |$ B3 E | E/ E/ A/ A/ A B | %24
 c B/ B/ A A | F B/ B/ (5:4:5G/4A/4G/4F/4!fermata![Gd]/4 c/>B/ | A3 z | %27
V:2
 x | x4 | x4 | x4 | x4 | x4 | x4 | x4 |$ x4 | x4 | x4 | x4 | x4 | x4 | x4 |$ x4 | x4 | x4 | x4 | %19
 x4 | x4 | x4 |$ x4 | x4 | x4 | z2 G x | x4 | %27

